Newaita/actions/16/audio-ready.svg

<svg height="16" viewBox="0 0 16 16" width="16" xmlns="http://www.w3.org/2000/svg"><g fill="#424242" fill-opacity=".392157"><path d="m7.273438 1.453125c-.003907 0-.011719 0-.015626 0-.1875.003906-.367187.089844-.488281.234375l-3.109375 3.734375h-.023437v5.285156h.023437l3.109375 3.730469c.179688.214844.472657.292969.730469.199219.261719-.09375.433594-.34375.433594-.621094v-11.90625c0-.363281-.296875-.660156-.660156-.65625zm-5.289063 3.96875c-.363281 0-.65625.292969-.65625.65625v3.96875c0 .363281.292969.660156.65625.660156h.992187v-5.285156zm0 0"/><path d="m9.84375 4.6875c-.289062-.007812-.550781.179688-.640625.457031-.089844.277344.015625.582031.257813.746094.679687.476563 1.125 1.265625 1.125 2.171875 0 .910156-.445313 1.695312-1.125 2.171875-.199219.136719-.308594.363281-.289063.601563.019531.234374.164063.445312.382813.542968.214843.097656.46875.074219.660156-.0625 1.023437-.71875 1.6875-1.910156 1.6875-3.253906 0-1.339844-.664063-2.535156-1.6875-3.25-.109375-.078125-.238282-.121094-.371094-.125zm0 0"/><path d="m11.363281 2.519531c-.292969-.007812-.554687.175781-.640625.457031-.089844.277344.015625.582032.253906.746094 1.367188.953125 2.257813 2.53125 2.257813 4.339844s-.890625 3.386719-2.257813 4.34375c-.195312.132812-.304687.363281-.285156.597656.019532.238282.164063.445313.382813.542969.214843.101563.464843.078125.660156-.0625 1.703125-1.195313 2.816406-3.179687 2.816406-5.421875s-1.113281-4.226562-2.816406-5.421875c-.109375-.078125-.238281-.121094-.371094-.121094zm0 0"/></g></svg>

<?xml version="1.0" encoding="UTF-8"?>
<svg xmlns="http://www.w3.org/2000/svg" xmlns:xlink="http://www.w3.org/1999/xlink" width="16px" height="16px" viewBox="0 0 16 16" version="1.1">
<g id="surface1">
<path style=" stroke:none;fill-rule:nonzero;fill:rgb(25.882354%,25.882354%,25.882354%);fill-opacity:0.392157;" d="M 7.273438 1.453125 C 7.269531 1.453125 7.261719 1.453125 7.257812 1.453125 C 7.070312 1.457031 6.890625 1.542969 6.769531 1.6875 L 3.660156 5.421875 L 3.636719 5.421875 L 3.636719 10.707031 L 3.660156 10.707031 L 6.769531 14.4375 C 6.949219 14.652344 7.242188 14.730469 7.5 14.636719 C 7.761719 14.542969 7.933594 14.292969 7.933594 14.015625 L 7.933594 2.109375 C 7.933594 1.746094 7.636719 1.449219 7.273438 1.453125 Z M 1.984375 5.421875 C 1.621094 5.421875 1.328125 5.714844 1.328125 6.078125 L 1.328125 10.046875 C 1.328125 10.410156 1.621094 10.707031 1.984375 10.707031 L 2.976562 10.707031 L 2.976562 5.421875 Z M 1.984375 5.421875 "/>
<path style=" stroke:none;fill-rule:nonzero;fill:rgb(25.882354%,25.882354%,25.882354%);fill-opacity:0.392157;" d="M 9.84375 4.6875 C 9.554688 4.679688 9.292969 4.867188 9.203125 5.144531 C 9.113281 5.421875 9.21875 5.726562 9.460938 5.890625 C 10.140625 6.367188 10.585938 7.15625 10.585938 8.0625 C 10.585938 8.972656 10.140625 9.757812 9.460938 10.234375 C 9.261719 10.371094 9.152344 10.597656 9.171875 10.835938 C 9.191406 11.070312 9.335938 11.28125 9.554688 11.378906 C 9.769531 11.476562 10.023438 11.453125 10.214844 11.316406 C 11.238281 10.597656 11.902344 9.40625 11.902344 8.0625 C 11.902344 6.722656 11.238281 5.527344 10.214844 4.8125 C 10.105469 4.734375 9.976562 4.691406 9.84375 4.6875 Z M 9.84375 4.6875 "/>
<path style=" stroke:none;fill-rule:nonzero;fill:rgb(25.882354%,25.882354%,25.882354%);fill-opacity:0.392157;" d="M 11.363281 2.519531 C 11.070312 2.511719 10.808594 2.695312 10.722656 2.976562 C 10.632812 3.253906 10.738281 3.558594 10.976562 3.722656 C 12.34375 4.675781 13.234375 6.253906 13.234375 8.0625 C 13.234375 9.871094 12.34375 11.449219 10.976562 12.40625 C 10.78125 12.539062 10.671875 12.769531 10.691406 13.003906 C 10.710938 13.242188 10.855469 13.449219 11.074219 13.546875 C 11.289062 13.648438 11.539062 13.625 11.734375 13.484375 C 13.4375 12.289062 14.550781 10.304688 14.550781 8.0625 C 14.550781 5.820312 13.4375 3.835938 11.734375 2.640625 C 11.625 2.5625 11.496094 2.519531 11.363281 2.519531 Z M 11.363281 2.519531 "/>
</g>
</svg>
